X: 653
T: Jin tan shisheng
L: 1/8
M: 2/4
K: F
F E D C [I:setbarnb 1]| 
D Cc2 | 
d c/ c/ c A | 
G4 | 
G Ac2 | 
f f d c | 
c A G F/ D/ | 
C4 | 
C DF2 | 
G Ac2 | 
c A G F | 
D4 | 
c dc2 | 
f dc2 | 
c F G A | 
c A G F/ D/ | 
C4 |]

@@@ Tune index: 9527
